X: 35058
T: Rolling In The Barrel
R: reel
M: 4/4
K: Adorian
A2 ~A2 eA~A2|e2dB GABG|A2 ~A2 eA~A2|e2dB eAAG:|
A2cA eAcA|GFGB d2BG|A2c/B/A eAcA|GEDG EAAG|
A2cA eAcA|GFGB d2dB|ABc/B/A BcBA|GEDB eBdB A4|

